X:30
T:Steyrer Tanz in C, nr. 13
C:traditionell
R:Steirer
A:Hallstatt, Salzkammergut
B:Corpus Musicae Popularis Austriacae (COMPA), 5.Band: J.M.Schmalnauer " Tanz Musik", Verlag Boehlau, Wien 1996
S:manuscript des Johann Michael Schmalnauer um 1820
N:im der quelle in C
Z:abc transcription Simon Wascher
F:http://simonwascher.info/TradArchiv/
M:3/4
L:1/8
K:C
V:1
%violino 1mo
P:g:Ap:
dGDB TG2 | ecGc E2 | egdfGf | ecGc E2 | dGDB TG2 | ecGc E2 | egdfGf | c2 "in G" C4 :|
V:2
%violino 2do
BGDG B,2 | cGEG C2 | ceBdGd | cGEG C2 |\
BGDG B,2 | cGEG C2 | ecBdGF | E4 :|
